svgs/light/align-left.svg

<svg xmlns="http://www.w3.org/2000/svg" viewBox="0 0 448 512"><!-- Font Awesome Pro 6.0.0-alpha2 by @fontawesome - https://fontawesome.com License - https://fontawesome.com/license (Commercial License) --><path d="M16 208H432C440.801 208 448 200.801 448 192S440.801 176 432 176H16C7.199 176 0 183.199 0 192S7.199 208 16 208ZM16 80H272C280.801 80 288 72.801 288 64S280.801 48 272 48H16C7.199 48 0 55.199 0 64S7.199 80 16 80ZM16 336H272C280.801 336 288 328.801 288 320S280.801 304 272 304H16C7.199 304 0 311.199 0 320S7.199 336 16 336ZM432 432H16C7.199 432 0 439.199 0 448S7.199 464 16 464H432C440.801 464 448 456.801 448 448S440.801 432 432 432Z"/></svg>

<svg xmlns="http://www.w3.org/2000/svg" viewBox="0 0 448 512"><!--! Font Awesome Pro 6.4.0 by @fontawesome - https://fontawesome.com License - https://fontawesome.com/license (Commercial License) Copyright 2023 Fonticons, Inc. --><path d="M16 48C7.2 48 0 55.2 0 64s7.2 16 16 16H272c8.8 0 16-7.2 16-16s-7.2-16-16-16H16zm0 128c-8.8 0-16 7.2-16 16s7.2 16 16 16H432c8.8 0 16-7.2 16-16s-7.2-16-16-16H16zM0 320c0 8.8 7.2 16 16 16H272c8.8 0 16-7.2 16-16s-7.2-16-16-16H16c-8.8 0-16 7.2-16 16zM16 432c-8.8 0-16 7.2-16 16s7.2 16 16 16H432c8.8 0 16-7.2 16-16s-7.2-16-16-16H16z"/></svg>
